assets/icons/printer/preview-filled.svg

<?xml version="1.0" encoding="UTF-8" standalone="no"?>
<svg
   viewBox="0 0 24 24"
   version="1.1"
   id="svg4"
   sodipodi:docname="preview-filled.svg"
   inkscape:version="1.2 (1:1.2.1+202207142221+cd75a1ee6d)"
   width="24"
   height="24"
   xmlns:inkscape="http://www.inkscape.org/namespaces/inkscape"
   xmlns:sodipodi="http://sodipodi.sourceforge.net/DTD/sodipodi-0.dtd"
   xmlns="http://www.w3.org/2000/svg"
   xmlns:svg="http://www.w3.org/2000/svg"
   xmlns:rdf="http://www.w3.org/1999/02/22-rdf-syntax-ns#"
   xmlns:cc="http://creativecommons.org/ns#"
   xmlns:dc="http://purl.org/dc/elements/1.1/">
  <metadata
     id="metadata10">
    <rdf:RDF>
      <cc:Work
         rdf:about="">
        <dc:format>image/svg+xml</dc:format>
        <dc:type
           rdf:resource="http://purl.org/dc/dcmitype/StillImage" />
      </cc:Work>
    </rdf:RDF>
  </metadata>
  <defs
     id="defs8" />
  <sodipodi:namedview
     pagecolor="#ffffff"
     bordercolor="#666666"
     borderopacity="1"
     objecttolerance="10"
     gridtolerance="10"
     guidetolerance="10"
     inkscape:pageopacity="0"
     inkscape:pageshadow="2"
     inkscape:window-width="1920"
     inkscape:window-height="1016"
     id="namedview6"
     showgrid="true"
     inkscape:zoom="27.499999"
     inkscape:cx="2.6909092"
     inkscape:cy="14.927273"
     inkscape:window-x="0"
     inkscape:window-y="0"
     inkscape:window-maximized="1"
     inkscape:current-layer="svg4"
     inkscape:pagecheckerboard="0"
     inkscape:showpageshadow="2"
     inkscape:deskcolor="#d1d1d1">
    <inkscape:grid
       type="xygrid"
       id="grid850" />
  </sodipodi:namedview>
  <path
     id="path1244"
     style="color:#000000;font-style:normal;font-variant:normal;font-weight:normal;font-stretch:normal;font-size:medium;line-height:normal;font-family:sans-serif;font-variant-ligatures:normal;font-variant-position:normal;font-variant-caps:normal;font-variant-numeric:normal;font-variant-alternates:normal;font-variant-east-asian:normal;font-feature-settings:normal;font-variation-settings:normal;text-indent:0;text-align:start;text-decoration:none;text-decoration-line:none;text-decoration-style:solid;text-decoration-color:#000000;letter-spacing:normal;word-spacing:normal;text-transform:none;writing-mode:lr-tb;direction:ltr;text-orientation:mixed;dominant-baseline:auto;baseline-shift:baseline;text-anchor:start;white-space:normal;shape-padding:0;shape-margin:0;inline-size:0;clip-rule:nonzero;display:inline;overflow:visible;visibility:visible;opacity:1;isolation:auto;mix-blend-mode:normal;color-interpolation:sRGB;color-interpolation-filters:linearRGB;solid-color:#000000;solid-opacity:1;vector-effect:none;fill:#808080;fill-opacity:1;fill-rule:nonzero;stroke:none;stroke-width:1;stroke-linecap:round;stroke-linejoin:miter;stroke-miterlimit:4;stroke-dasharray:none;stroke-dashoffset:0;stroke-opacity:1;marker:none;color-rendering:auto;image-rendering:auto;shape-rendering:auto;text-rendering:auto;enable-background:accumulate;stop-color:#000000;stop-opacity:1"
     d="m 15.75,12 c -2.063665,0 -3.75,1.686335 -3.75,3.75 0,2.063665 1.686335,3.75 3.75,3.75 0.845181,0 1.617418,-0.293255 2.246094,-0.769042 a 0.83553746,0.83553746 0 0 0 0.239257,0.686035 l 2.089844,2.089843 a 0.83553746,0.83553746 0 0 0 1.181641,0 0.83553746,0.83553746 0 0 0 0,-1.181641 l -2.089843,-2.089844 a 0.83553746,0.83553746 0 0 0 -0.620118,-0.24414 0.83553746,0.83553746 0 0 0 -0.06591,0.0049 c 0.475788,-0.628676 0.769043,-1.400912 0.769043,-2.246093 0,-2.063665 -1.686335,-3.75 -3.75,-3.75 z m 0,1.25 c 1.388115,0 2.5,1.111885 2.5,2.5 0,1.388115 -1.111885,2.5 -2.5,2.5 -1.388115,0 -2.5,-1.111885 -2.5,-2.5 0,-1.388115 1.111885,-2.5 2.5,-2.5 z" />
  <path
     id="rect867"
     style="fill:#808080;fill-opacity:1;fill-rule:evenodd;stroke-width:0.5;stroke-linecap:round;stroke-linejoin:round"
     d="M 6 2 L 6 6 L 18 6 L 18 2 L 6 2 z M 6 7 L 6 7.0078125 C 4.9331411 7.0375525 4.0204038 7.1789546 3.2949219 7.640625 C 2.4585485 8.1728627 2 9.1500136 2 10.5 L 2 14.5 C 2 15.84999 2.4585485 16.827142 3.2949219 17.359375 C 3.781654 17.669116 4.3547047 17.831599 5 17.916016 L 5 14 L 11.337891 14 C 12.039991 12.249049 13.758804 11 15.75 11 L 16.400391 11 L 16.464844 11.146484 C 16.661695 11.177949 16.85431 11.221454 17.042969 11.275391 C 17.017519 11.187197 17 11.096388 17 11 C 17 10.447718 17.447718 10 18 10 C 18.552282 10 19 10.447718 19 11 C 19 11.403905 18.758761 11.75038 18.414062 11.908203 C 19.666274 12.742067 20.5 14.135819 20.5 15.75 C 20.5 16.189637 20.418928 16.603522 20.294922 17 L 21.136719 17 C 21.694184 16.434054 22 15.592125 22 14.5 L 22 10.5 C 22 9.1500136 21.54145 8.1728627 20.705078 7.640625 C 19.979599 7.1789546 19.06686 7.0375523 18 7.0078125 L 18 7 L 6 7 z M 6 15 L 6 17.992188 L 6 20 L 6 22 L 17 22 L 17 20.294922 C 16.603522 20.418928 16.189638 20.5 15.75 20.5 C 14.993842 20.5 14.277518 20.319143 13.640625 20 L 8 20 L 8 19 L 12.296875 19 C 12.014265 18.70012 11.770306 18.3645 11.572266 18 L 8 18 L 8 17 L 11.169922 17 C 11.059867 16.600915 11 16.182367 11 15.75 C 11 15.495157 11.021225 15.244368 11.060547 15 L 6 15 z " />
</svg>

<svg width="24" height="24" xmlns="http://www.w3.org/2000/svg"><path style="color:#000;font-style:normal;font-variant:normal;font-weight:400;font-stretch:normal;font-size:medium;line-height:normal;font-family:sans-serif;font-variant-ligatures:normal;font-variant-position:normal;font-variant-caps:normal;font-variant-numeric:normal;font-variant-alternates:normal;font-variant-east-asian:normal;font-feature-settings:normal;font-variation-settings:normal;text-indent:0;text-align:start;text-decoration:none;text-decoration-line:none;text-decoration-style:solid;text-decoration-color:#000;letter-spacing:normal;word-spacing:normal;text-transform:none;writing-mode:lr-tb;direction:ltr;text-orientation:mixed;dominant-baseline:auto;baseline-shift:baseline;text-anchor:start;white-space:normal;shape-padding:0;shape-margin:0;inline-size:0;clip-rule:nonzero;display:inline;overflow:visible;visibility:visible;opacity:1;isolation:auto;mix-blend-mode:normal;color-interpolation:sRGB;color-interpolation-filters:linearRGB;solid-color:#000;solid-opacity:1;vector-effect:none;fill:gray;fill-opacity:1;fill-rule:nonzero;stroke:none;stroke-width:1;stroke-linecap:round;stroke-linejoin:miter;stroke-miterlimit:4;stroke-dasharray:none;stroke-dashoffset:0;stroke-opacity:1;marker:none;color-rendering:auto;image-rendering:auto;shape-rendering:auto;text-rendering:auto;enable-background:accumulate;stop-color:#000;stop-opacity:1" d="M15.75 12A3.76 3.76 0 0 0 12 15.75a3.76 3.76 0 0 0 3.75 3.75c.845 0 1.617-.293 2.246-.769a.836.836 0 0 0 .24.686l2.09 2.09a.836.836 0 0 0 1.18 0 .836.836 0 0 0 0-1.182l-2.089-2.09a.836.836 0 0 0-.62-.244.836.836 0 0 0-.066.005c.476-.629.769-1.4.769-2.246A3.76 3.76 0 0 0 15.75 12zm0 1.25a2.49 2.49 0 0 1 2.5 2.5 2.49 2.49 0 0 1-2.5 2.5 2.49 2.49 0 0 1-2.5-2.5 2.49 2.49 0 0 1 2.5-2.5z"/><path style="fill:gray;fill-opacity:1;stroke-width:.5;stroke-linecap:round;stroke-linejoin:round" d="M6 2v4h12V2H6zm0 5v.008c-1.067.03-1.98.171-2.705.633C2.459 8.173 2 9.15 2 10.5v4c0 1.35.459 2.327 1.295 2.86.487.31 1.06.472 1.705.556V14h6.338c.702-1.751 2.42-3 4.412-3h.65l.065.146c.197.032.39.075.578.13A.985.985 0 0 1 17 11a1 1 0 1 1 1.414.908c1.252.834 2.086 2.228 2.086 3.842 0 .44-.081.854-.205 1.25h.842c.557-.566.863-1.408.863-2.5v-4c0-1.35-.459-2.327-1.295-2.86-.725-.461-1.638-.602-2.705-.632V7H6zm0 8v7h11v-1.705c-.396.124-.81.205-1.25.205-.756 0-1.472-.18-2.11-.5H8v-1h4.297a4.798 4.798 0 0 1-.725-1H8v-1h3.17a4.693 4.693 0 0 1-.11-2H6z"/></svg>
